src/telerik-icons/solid/layout.svg

<?xml version="1.0" encoding="utf-8"?>
<svg xmlns="http://www.w3.org/2000/svg" width="512" height="512" viewBox="0 0 512 512">
  <path d="M192 416h256v64H192v-64zm0-32h256v-64H192v64zM32 480h128V128H32v352zm160-288h256v-64H192v64zm0 96h256v-64H192v64zM32 0v96h416V0H32z"/>
</svg>

<?xml version="1.0" encoding="utf-8"?>
<!-- Generator: Adobe Illustrator 16.0.3, SVG Export Plug-In . SVG Version: 6.00 Build 0)  -->
<svg xmlns="http://www.w3.org/2000/svg" width="512" height="512" viewBox="0 0 512 512">
<path d="M192,416h256v64H192V416z M192,384h256v-64H192V384z M32,480h128V128H32V480z M192,192h256v-64H192V192z M192,288h256v-64
	H192V288z M32,0v96h416V0H32z" />
</svg>
